web/kotlin/kotlin-retro.svg

<svg enable-background="new 0 0 70 70" height="70" viewBox="0 0 70 70" width="70" xmlns="http://www.w3.org/2000/svg"><path d="m0 58.5v.2c0 6.2 5.2 11.3 11.6 11.3s11.6-5.1 11.6-11.3v-12.4z"/><path d="m69.9 58.5c-.2-2.4-1.3-4.7-3-6.4v-.1l-20.8-17.7-20.1 10.5 26.1 22.6c2 1.7 4.5 2.5 7.1 2.5h.9c2.9-.2 5.5-1.6 7.3-3.7 1.9-2.1 2.8-4.9 2.5-7.7z"/><path d="m23.1 12.8v-1.2c0-.1 0-.2 0-.3 0-6.2-5.2-11.3-11.6-11.3-6.3 0-11.5 5.1-11.5 11.3v13.8z"/><path d="m0 29.9 54.1-28.7c1.6-.8 3.3-1.2 5.1-1.2 1.1 0 2.2.2 3.3.5 5.7 1.8 8.8 7.7 6.9 13.2-.8 2.3-2.3 4.3-4.4 5.5v.1l-.7.4-64.3 33.8zm3.2 18.4 59.7-31.3.3-.2c1.5-.9 2.5-2.3 3.1-3.9.6-1.8.5-3.9-.5-5.6-.9-1.8-2.5-3-4.4-3.7-.8-.2-1.5-.4-2.3-.4-1.2 0-2.5.3-3.5.9l-52.4 27.7z"/></svg>

<?xml version="1.0" encoding="utf-8"?>
<!-- Generator: Adobe Illustrator 19.1.0, SVG Export Plug-In . SVG Version: 6.00 Build 0)  -->
<svg version="1.1" id="Layer_1" xmlns="http://www.w3.org/2000/svg" xmlns:xlink="http://www.w3.org/1999/xlink" x="0px" y="0px"
	 width="70px" height="70px" viewBox="0 0 70 70" style="enable-background:new 0 0 70 70;" xml:space="preserve">
<g>
	<g>
		<path d="M0,58.5v0.2C0,64.9,5.2,70,11.6,70s11.6-5.1,11.6-11.3V46.3L0,58.5z"/>
		<path d="M69.9,58.5c-0.2-2.4-1.3-4.7-3-6.4V52L46.1,34.3L26,44.8l26.1,22.6c2,1.7,4.5,2.5,7.1,2.5l0,0c0.3,0,0.6,0,0.9,0
			c2.9-0.2,5.5-1.6,7.3-3.7C69.3,64.1,70.2,61.3,69.9,58.5z"/>
		<path d="M23.1,12.8v-1.2c0-0.1,0-0.2,0-0.3C23.1,5.1,17.9,0,11.5,0C5.2,0,0,5.1,0,11.3v13.8L23.1,12.8z"/>
		<path d="M0,29.9L54.1,1.2C55.7,0.4,57.4,0,59.2,0c1.1,0,2.2,0.2,3.3,0.5c5.7,1.8,8.8,7.7,6.9,13.2c-0.8,2.3-2.3,4.3-4.4,5.5v0.1
			l-0.7,0.4L0,53.5V29.9z M3.2,48.3l59.7-31.3l0.3-0.2c1.5-0.9,2.5-2.3,3.1-3.9c0.6-1.8,0.5-3.9-0.5-5.6c-0.9-1.8-2.5-3-4.4-3.7
			c-0.8-0.2-1.5-0.4-2.3-0.4c-1.2,0-2.5,0.3-3.5,0.9L3.2,31.8V48.3z"/>
	</g>
</g>
</svg>
